icons/skills/css-3svg.svg

<?xml version="1.0" encoding="UTF-8"?>
<svg xmlns="http://www.w3.org/2000/svg" xmlns:xlink="http://www.w3.org/1999/xlink" width="px" height="px" viewBox="0 0 400 400" version="1.1">
<g id="surface1">
<path style=" stroke:none;fill-rule:nonzero;fill:rgb(8.235294%,44.705882%,71.372549%);fill-opacity:1;" d="M 73.773438 340.011719 L 45.699219 25 L 354.300781 25 L 326.1875 339.960938 L 199.8125 375 Z M 73.773438 340.011719 "/>
<path style=" stroke:none;fill-rule:nonzero;fill:rgb(20%,66.27451%,86.27451%);fill-opacity:1;" d="M 200 348.226562 L 302.125 319.914062 L 326.148438 50.761719 L 200 50.761719 Z M 200 348.226562 "/>
<path style=" stroke:none;fill-rule:nonzero;fill:rgb(100%,100%,100%);fill-opacity:1;" d="M 200 164.886719 L 251.125 164.886719 L 254.648438 125.324219 L 200 125.324219 L 200 86.6875 L 296.875 86.6875 L 295.949219 97.050781 L 286.460938 203.523438 L 200 203.523438 Z M 200 164.886719 "/>
<path style=" stroke:none;fill-rule:nonzero;fill:rgb(92.156863%,92.156863%,92.156863%);fill-opacity:1;" d="M 200.238281 265.226562 L 200.0625 265.273438 L 157.039062 253.648438 L 154.289062 222.835938 L 115.5 222.835938 L 120.914062 283.5 L 200.050781 305.476562 L 200.238281 305.425781 Z M 200.238281 265.226562 "/>
<path style=" stroke:none;fill-rule:nonzero;fill:rgb(100%,100%,100%);fill-opacity:1;" d="M 247.835938 201.886719 L 243.1875 253.625 L 200.101562 265.25 L 200.101562 305.449219 L 279.300781 283.5 L 279.886719 276.976562 L 286.601562 201.886719 Z M 247.835938 201.886719 "/>
<path style=" stroke:none;fill-rule:nonzero;fill:rgb(92.156863%,92.156863%,92.156863%);fill-opacity:1;" d="M 200.136719 86.6875 L 200.136719 125.324219 L 106.8125 125.324219 L 106.039062 116.636719 L 104.273438 97.050781 L 103.351562 86.6875 Z M 200.136719 86.6875 "/>
<path style=" stroke:none;fill-rule:nonzero;fill:rgb(92.156863%,92.156863%,92.156863%);fill-opacity:1;" d="M 200 164.886719 L 200 203.523438 L 157.511719 203.523438 L 156.738281 194.835938 L 154.988281 175.25 L 154.0625 164.886719 Z M 200 164.886719 "/>
</g>
</svg>

<?xml version="1.0" encoding="UTF-8" standalone="no"?>
<svg
   width="px"
   height="px"
   viewBox="0 0 400 400"
   version="1.1"
   id="svg221"
   sodipodi:docname="css-3svg.svg"
   inkscape:version="1.2.2 (732a01da63, 2022-12-09)"
   xmlns:inkscape="http://www.inkscape.org/namespaces/inkscape"
   xmlns:sodipodi="http://sodipodi.sourceforge.net/DTD/sodipodi-0.dtd"
   xmlns="http://www.w3.org/2000/svg"
   xmlns:svg="http://www.w3.org/2000/svg">
  <defs
     id="defs225" />
  <sodipodi:namedview
     id="namedview223"
     pagecolor="#ffffff"
     bordercolor="#000000"
     borderopacity="0.25"
     inkscape:showpageshadow="2"
     inkscape:pageopacity="0.0"
     inkscape:pagecheckerboard="0"
     inkscape:deskcolor="#d1d1d1"
     showgrid="false"
     inkscape:zoom="1.4796209"
     inkscape:cx="112.86675"
     inkscape:cy="170.31389"
     inkscape:window-width="1920"
     inkscape:window-height="1017"
     inkscape:window-x="-8"
     inkscape:window-y="-8"
     inkscape:window-maximized="1"
     inkscape:current-layer="svg221" />
  <g
     id="surface1"
     transform="matrix(1.1351698,0,0,1.1351698,-27.033951,-27.033951)">
    <path
       style="fill:#1470b5;fill-opacity:1;fill-rule:nonzero;stroke:none"
       d="M 73.773438,340.01172 45.699219,25 H 354.30078 L 326.1875,339.96094 199.8125,375 Z m 0,0"
       id="path206" />
    <path
       style="fill:#33a8dc;fill-opacity:1;fill-rule:nonzero;stroke:none"
       d="M 200,348.22656 302.125,319.91406 326.14844,50.761719 H 200 Z m 0,0"
       id="path208" />
    <path
       style="fill:#ffffff;fill-opacity:1;fill-rule:nonzero;stroke:none"
       d="m 200,164.88672 h 51.125 l 3.52344,-39.5625 H 200 V 86.6875 h 96.875 l -0.92578,10.363281 -9.48828,106.472659 H 200 Z m 0,0"
       id="path210" />
    <path
       style="fill:#ebebeb;fill-opacity:1;fill-rule:nonzero;stroke:none"
       d="m 200.23828,265.22656 -0.17578,0.0469 -43.02344,-11.625 -2.75,-30.8125 H 115.5 l 5.41406,60.66406 79.13672,21.97656 0.1875,-0.0508 z m 0,0"
       id="path212" />
    <path
       style="fill:#ffffff;fill-opacity:1;fill-rule:nonzero;stroke:none"
       d="M 247.83594,201.88672 243.1875,253.625 200.10156,265.25 v 40.19922 L 279.30078,283.5 l 0.58594,-6.52344 6.71484,-75.08984 z m 0,0"
       id="path214" />
    <path
       style="fill:#ebebeb;fill-opacity:1;fill-rule:nonzero;stroke:none"
       d="m 200.13672,86.6875 v 38.63672 H 106.8125 l -0.77344,-8.6875 -1.76562,-19.585939 -0.92188,-10.363281 z m 0,0"
       id="path216" />
    <path
       style="fill:#ebebeb;fill-opacity:1;fill-rule:nonzero;stroke:none"
       d="m 200,164.88672 v 38.63672 h -42.48828 l -0.77344,-8.6875 -1.75,-19.58594 -0.92578,-10.36328 z m 0,0"
       id="path218" />
  </g>
</svg>
